picto/attention-danger-of-falling.svg

<svg class="color-immutable" width="24" height="24" viewBox="0 0 24 24" fill="none" xmlns="http://www.w3.org/2000/svg"><path d="M0 22.5V1.5C0 0.675 0.675 0 1.5 0H22.5C23.325 0 24 0.675 24 1.5V22.5C24 23.325 23.325 24 22.5 24H1.5C0.675 24 0 23.325 0 22.5Z" fill="#2D327D"/><path d="M20.869 18.582L12.771 4.556C12.606 4.281 12.338 4.085 12.002 4.084C11.677 4.083 11.394 4.29 11.232 4.557L3.13397 18.584C2.97897 18.864 2.94297 19.195 3.10997 19.486C3.27197 19.768 3.59197 19.909 3.90497 19.916H20.1C20.42 19.91 20.725 19.776 20.893 19.486C21.057 19.205 21.019 18.856 20.869 18.582Z" fill="white"/><path d="M20.869 18.582L12.771 4.556C12.606 4.281 12.338 4.085 12.002 4.084C11.677 4.083 11.394 4.29 11.232 4.557L3.13397 18.584C2.97897 18.864 2.94297 19.195 3.10997 19.486C3.27197 19.768 3.59197 19.909 3.90497 19.916H20.1C20.42 19.91 20.725 19.776 20.893 19.486C21.057 19.205 21.019 18.856 20.869 18.582ZM5.12197 18.364L12 6.451L18.878 18.364H5.12197Z" fill="#EB0000"/><path d="M15.099 13.959C15.091 13.959 15.106 13.958 15.099 13.959C15.099 13.959 13.214 13.959 13.204 13.959C13.138 13.959 13.082 13.996 13.053 14.05L12.302 14.943L11.305 14.363L12.082 14.17C12.164 14.156 12.226 14.086 12.226 14C12.226 13.994 12.227 14.006 12.226 14L12.227 12.502C12.227 12.495 12.227 12.509 12.227 12.502C12.227 12.306 12.07 12.147 11.874 12.147C11.68 12.147 11.521 12.302 11.516 12.495V13.578L10.483 13.835L10.484 13.839C10.053 13.9 9.72097 14.27 9.72097 14.718C9.72097 14.83 9.74597 14.939 9.76797 15.038C9.76797 15.038 10.064 16.355 10.084 16.437C10.104 16.519 10.114 16.545 10.187 16.599C10.187 16.599 11.307 17.385 11.41 17.454C11.512 17.523 11.566 17.553 11.663 17.553C11.859 17.553 12.018 17.394 12.018 17.198C12.018 17.056 11.93 16.951 11.817 16.872C11.704 16.793 10.741 16.12 10.741 16.12L10.625 15.598C10.629 15.597 11.806 16.286 11.806 16.286H13.96V17.424C13.997 17.633 14.185 17.791 14.404 17.791C14.623 17.791 14.812 17.632 14.848 17.424V15.76C14.845 15.561 14.679 15.396 14.479 15.396H13.08L13.541 14.847H15.14C15.375 14.836 15.563 14.643 15.563 14.405C15.564 14.16 15.344 13.959 15.099 13.959ZM9.18797 12.926C8.77297 12.926 8.43597 13.263 8.43597 13.678C8.43597 14.093 8.77297 14.43 9.18797 14.43C9.60297 14.43 9.93997 14.094 9.93997 13.678C9.93997 13.263 9.60297 12.926 9.18797 12.926Z" fill="black"/></svg>

<svg class="color-immutable" width="24" height="24" viewBox="0 0 24 24" fill="none" xmlns="http://www.w3.org/2000/svg"><g clip-path="url(#a)"><path d="M0 22.5v-21C0 .675.675 0 1.5 0h21c.825 0 1.5.675 1.5 1.5v21c0 .825-.675 1.5-1.5 1.5h-21C.675 24 0 23.325 0 22.5Z" fill="#2D327D"/><path d="M20.869 18.582 12.771 4.556c-.165-.275-.433-.471-.769-.472-.325-.001-.608.206-.77.473L3.134 18.584c-.155.28-.191.611-.024.902.162.282.482.423.795.43H20.1c.32-.006.625-.14.793-.43.164-.281.126-.63-.024-.904Z" fill="#fff"/><path d="M20.869 18.582 12.771 4.556c-.165-.275-.433-.471-.769-.472-.325-.001-.608.206-.77.473L3.134 18.584c-.155.28-.191.611-.024.902.162.282.482.423.795.43H20.1c.32-.006.625-.14.793-.43.164-.281.126-.63-.024-.904Zm-15.747-.218L12 6.451l6.878 11.913H5.122Z" fill="#EB0000"/><path d="M15.099 13.959c-.008 0 .007-.001 0 0h-1.895a.17.17 0 0 0-.151.091l-.751.893-.997-.58.777-.193a.172.172 0 0 0 .144-.17l.001-1.498c0-.007 0 .007 0 0a.353.353 0 0 0-.353-.355.358.358 0 0 0-.358.348v1.083l-1.033.257.001.004a.888.888 0 0 0-.763.879c0 .112.025.221.047.32 0 0 .296 1.317.316 1.399.02.082.03.108.103.162 0 0 1.12.786 1.223.855.102.069.156.099.253.099a.355.355 0 0 0 .355-.355c0-.142-.088-.247-.201-.326l-1.076-.752-.116-.522c.004-.001 1.181.688 1.181.688h2.154v1.138a.451.451 0 0 0 .888 0V15.76a.372.372 0 0 0-.369-.364H13.08l.461-.549h1.599a.443.443 0 0 0 .423-.442c.001-.245-.219-.446-.464-.446Zm-5.911-1.033a.752.752 0 1 0 0 1.505.752.752 0 0 0 0-1.505Z" fill="#000"/></g><defs><clipPath id="a"><path fill="#fff" d="M0 0h24v24H0z"/></clipPath></defs></svg>
